X: 22
T:VALSE A MICHEL
M:3/4
L:1/8
Q:206
C:M. Foray
R:valse
K:C
G2c2d2|e4e2|f2e2d2|e4c2|G2c2d2|e4f2|1 g2f2e2|d4e2|d6:|2 g2e2d2|c4e2|c6|:
e2f2g2|a4b2|c'2b2a2|g6|e2d2e2|f4a2|gf e2d2|1 e4c2:|2 c4e2|c6||
